svgs/sharp-light/notes.svg

<svg xmlns="http://www.w3.org/2000/svg" viewBox="0 0 512 512"><!--! Font Awesome Pro 6.6.0 by @fontawesome - https://fontawesome.com License - https://fontawesome.com/license (Commercial License) Copyright 2024 Fonticons, Inc. --><path d="M128 416l-32 0 0-32L96 64l0-32 32 0 320 0 32 0 0 32 0 240L368 416l-240 0zm226.7-32L448 290.7l0-2.7-96 0 0 96 2.7 0zM320 384l0-112 0-16 16 0 112 0 0-192L128 64l0 320 192 0zm0 96l0 32-16 0L16 512 0 512l0-16L0 144l0-16 32 0 0 16 0 336 272 0 16 0z"/></svg>

<svg xmlns="http://www.w3.org/2000/svg" viewBox="0 0 512 512"><!--! Font Awesome Pro 6.4.0 by @fontawesome - https://fontawesome.com License - https://fontawesome.com/license (Commercial License) Copyright 2023 Fonticons, Inc. --><path d="M128 416H96V384 64 32h32H448h32V64 304L368 416H128zm226.7-32L448 290.7V288H352v96h2.7zM320 384V272 256h16H448V64H128V384H320zm0 96v32H304 16 0V496 144 128H32v16l0 336H304h16z"/></svg>
